Newaita-dark/actions/32/edit-redo.svg

<svg height="32" viewBox="0 0 32 32" width="32" xmlns="http://www.w3.org/2000/svg"><path d="m15.875 2.894531v2.648438c-6.59375 0-11.90625 5.308593-11.90625 11.90625 0 6.597656 5.3125 11.90625 11.90625 11.90625 6.597656 0 11.910156-5.308594 11.910156-11.90625 0-2.492188-.761718-4.804688-2.0625-6.714844-.585937-.890625-3.066406.101563-2.1875 1.492187 1.011719 1.484376 1.601563 3.28125 1.601563 5.222657 0 5.132812-4.128907 9.261719-9.261719 9.261719-5.128906 0-9.261719-4.128907-9.261719-9.261719 0-5.128907 4.132813-9.261719 9.261719-9.261719v2.648438l5.292969-3.972657zm0 0" fill="#e0e0e0"/></svg>

<svg xmlns="http://www.w3.org/2000/svg" xmlns:xlink="http://www.w3.org/1999/xlink" width="32px" height="32px" viewBox="0 0 32 32" version="1.1">
<g id="surface1">
     <defs>
  <style id="current-color-scheme" type="text/css">
   .ColorScheme-Text { color:#eeeeee; } .ColorScheme-Highlight { color:#424242; }
  </style>
 </defs>
<path style="fill:currentColor" class="ColorScheme-Text" d="M 15.875 2.894531 L 15.875 5.542969 C 9.28125 5.542969 3.96875 10.851562 3.96875 17.449219 C 3.96875 24.046875 9.28125 29.355469 15.875 29.355469 C 22.472656 29.355469 27.785156 24.046875 27.785156 17.449219 C 27.785156 14.957031 27.023438 12.644531 25.722656 10.734375 C 25.136719 9.84375 22.65625 10.835938 23.535156 12.226562 C 24.546875 13.710938 25.136719 15.507812 25.136719 17.449219 C 25.136719 22.582031 21.007812 26.710938 15.875 26.710938 C 10.746094 26.710938 6.613281 22.582031 6.613281 17.449219 C 6.613281 12.320312 10.746094 8.1875 15.875 8.1875 L 15.875 10.835938 L 21.167969 6.863281 Z M 15.875 2.894531 "/>
</g>
</svg>
